packages/icons/svg/Service_Tools_Comparator_64px.svg

<svg xmlns="http://www.w3.org/2000/svg" viewBox="0 0 64 64"><path d="M57 37.62h-1.35l-4.76-16.89 6.28 1.4a1.24 1.24 0 00.33 0 1.5 1.5 0 00.33-3L38 14.79a6 6 0 00-4.5-5.46V6a1.5 1.5 0 00-3 0v3.33a6 6 0 00-3.78 3L6.83 7.87a1.5 1.5 0 00-.66 2.93l7.61 1.69L8.4 30.5H7a2 2 0 00-1.46.63A2 2 0 005 32.61a10 10 0 0020 0 2 2 0 00-.54-1.48A2 2 0 0023 30.5h-1.35l-4.89-17.35 9.24 2a6 6 0 004.5 5.74V56H21a1.5 1.5 0 000 3h10.26a1.47 1.47 0 001.48 0H43a1.5 1.5 0 000-3h-9.5V20.94a6.06 6.06 0 003.9-3.2L47.65 20 42.4 37.62H41a2 2 0 00-1.46.63 2 2 0 00-.54 1.48 10 10 0 0020 0 2 2 0 00-.54-1.48 2 2 0 00-1.46-.63zM15 39a7 7 0 01-6.84-5.5h13.68A7 7 0 0115 39zm-4.51-8.5l4.67-15.65 4.42 15.65zM32 18.13a3 3 0 113-3 3 3 0 01-3 3zM49.16 22l4.42 15.65h-9.09zM49 46.12a7 7 0 01-6.84-5.5h13.68a7 7 0 01-6.84 5.5z"/></svg>

<svg xmlns="http://www.w3.org/2000/svg" viewBox="0 0 64 64"><defs></defs><g id="Icon"><path  d="M57,37.62H55.65L50.89,20.73l6.28,1.4a1.24,1.24,0,0,0,.33,0,1.5,1.5,0,0,0,.33-3L38,14.79A6,6,0,0,0,33.5,9.33V6a1.5,1.5,0,0,0-3,0V9.33a6,6,0,0,0-3.78,3L6.83,7.87a1.5,1.5,0,0,0-.66,2.93l7.61,1.69L8.4,30.5H7a2,2,0,0,0-1.46.63A2,2,0,0,0,5,32.61a10,10,0,0,0,20,0,2,2,0,0,0-.54-1.48A2,2,0,0,0,23,30.5H21.65L16.76,13.15l9.24,2a6,6,0,0,0,4.5,5.74V56H21a1.5,1.5,0,0,0,0,3H31.26a1.47,1.47,0,0,0,1.48,0H43a1.5,1.5,0,0,0,0-3H33.5V20.94a6.06,6.06,0,0,0,3.9-3.2L47.65,20,42.4,37.62H41a2,2,0,0,0-1.46.63A2,2,0,0,0,39,39.73a10,10,0,0,0,20,0,2,2,0,0,0-.54-1.48A2,2,0,0,0,57,37.62ZM15,39a7,7,0,0,1-6.84-5.5H21.84A7,7,0,0,1,15,39Zm-4.51-8.5,4.67-15.65L19.58,30.5ZM32,18.13a3,3,0,1,1,3-3A3,3,0,0,1,32,18.13ZM49.16,22l4.42,15.65H44.49ZM49,46.12a7,7,0,0,1-6.84-5.5H55.84A7,7,0,0,1,49,46.12Z"/></g></svg>
